X:201
T:Scotch Sett Of Quadrilles No.1. Le4.201
M:6/8
L:1/8
Q:3/8=90
B:L.Leadley MS#4 c1850
Z:Village Music Project 2016 Steve Mansfield
K:C
G | c>dc e>fe | {e}dcd c2c | ede ceg | a3 g2 a/b/ |
c'ba gc'e | {e}dcd ecA | G>AG {G}Ace | {e}dcd c2 ||
E | {A}GAG BcB | {B}AGA G2G | BAB GBd | e3 def |
g>fe dgB | AGA BGE | DED DGB | {B}AGA G2 !segno! ||
e | aee bee | c'ee bee | (a^ga) (c'ba) | a^gg g2e |
fee ^dee | cee Bee | cBA AB^d | e3 e2 !D.C.! |]

